X:34
T:Coral Riff
M:C|
L:1/8
R:An Dro / March
K:EDor
E2 DE B,DE G- | GA DE B,A,A,2 | E2 DE B,D (3EFG | A>GED EGFD |
E2 DE B,DE G- | GA DE B,A,A,2 | E2 DE B,D (3EFG | A>GED E3 A |
B2 AG B2 EG | BA A3E GA | B2 AG B2 EG | A>GED E2 GA |
B2 AG B2 EG | BA A3G (3FED | E2 DE B,D (3EFG | A>GED EGFD |

